frontend/src/assets/consult.svg

<svg width="56" height="55" viewBox="0 0 56 55" fill="none" xmlns="http://www.w3.org/2000/svg">
<path d="M9.43727 35.7917C4.22521 30.7291 4.09077 22.6515 9.13699 17.75L18.274 8.875C23.3202 3.97347 31.6362 4.10406 36.8482 9.16667L46.2855 18.3333C51.4976 23.3959 51.632 31.4735 46.5858 36.375L37.4488 45.25C32.4026 50.1515 24.0866 50.0209 18.8745 44.9583L9.43727 35.7917Z" fill="#FEDFB1"/>
<path d="M12.0646 34.3333C7.61063 30.2832 7.61063 23.7168 12.0646 19.6667L20.1292 12.3333C24.5831 8.28325 31.8044 8.28325 36.2583 12.3333L44.3229 19.6667C48.7768 23.7168 48.7768 30.2833 44.3229 34.3333L36.2583 41.6667C31.8043 45.7168 24.5831 45.7168 20.1291 41.6667L12.0646 34.3333Z" fill="#FEDFB1"/>
<path d="M31.92 28.61C32.1242 28.1142 32.235 27.5833 32.235 27C32.235 26.58 32.1708 26.1775 32.06 25.8042C31.6808 25.8917 31.2842 25.9383 30.87 25.9383C30.0218 25.9392 29.1859 25.7362 28.4326 25.3464C27.6793 24.9565 27.0308 24.3913 26.5417 23.6983C26.0185 24.9643 25.0315 25.9825 23.7825 26.545C23.7592 26.6908 23.7592 26.8483 23.7592 27C23.7592 27.5569 23.8689 28.1084 24.082 28.6229C24.2951 29.1374 24.6075 29.6049 25.0013 29.9987C25.7966 30.794 26.8753 31.2408 28 31.2408C28.6125 31.2408 29.2017 31.1067 29.7325 30.8675C30.065 31.5033 30.2167 31.8183 30.205 31.8183C29.2483 32.1392 28.5075 32.2967 28 32.2967C26.5883 32.2967 25.2408 31.7425 24.2492 30.745C23.646 30.1437 23.1976 29.4051 22.9425 28.5925H22.1667V25.9383H22.8025C22.9951 25.0006 23.438 24.1326 24.0842 23.4263C24.7304 22.7199 25.5557 22.2017 26.4726 21.9266C27.3895 21.6515 28.3637 21.6297 29.292 21.8636C30.2203 22.0974 31.0679 22.5783 31.745 23.255C32.4801 23.9872 32.9816 24.921 33.1858 25.9383H33.8333V28.5925H33.7983L31.7217 30.5L28.63 30.15V29.1758H31.4475L31.92 28.61ZM26.4075 26.8658C26.5825 26.8658 26.7517 26.9358 26.8742 27.0642C26.9973 27.1883 27.0664 27.356 27.0664 27.5308C27.0664 27.7056 26.9973 27.8734 26.8742 27.9975C26.7517 28.12 26.5825 28.19 26.4075 28.19C26.04 28.19 25.7425 27.8983 25.7425 27.5308C25.7425 27.1633 26.04 26.8658 26.4075 26.8658ZM29.5867 26.8658C29.9542 26.8658 30.2458 27.1633 30.2458 27.5308C30.2458 27.8983 29.9542 28.19 29.5867 28.19C29.2192 28.19 28.9217 27.8983 28.9217 27.5308C28.9217 27.3545 28.9917 27.1853 29.1164 27.0606C29.2412 26.9359 29.4103 26.8658 29.5867 26.8658Z" fill="#01244C"/>
</svg>

<svg xmlns="http://www.w3.org/2000/svg" width="56" height="55" fill="none" xmlns:v="https://vecta.io/nano"><g fill="#fedfb1"><path d="M9.437 35.792c-5.212-5.063-5.346-13.14-.3-18.042l9.137-8.875c5.046-4.902 13.362-4.771 18.574.292l9.437 9.167c5.212 5.063 5.346 13.14.3 18.042l-9.137 8.875c-5.046 4.901-13.362 4.771-18.574-.292l-9.437-9.167z"/><path d="M12.065 34.333c-4.454-4.05-4.454-10.617 0-14.667l8.065-7.333c4.454-4.05 11.675-4.05 16.129 0l8.065 7.333c4.454 4.05 4.454 10.617 0 14.667l-8.065 7.333c-4.454 4.05-11.675 4.05-16.129 0l-8.065-7.333z"/></g><path d="M31.92 28.61a4.17 4.17 0 0 0 .315-1.61c0-.42-.064-.823-.175-1.196-.379.087-.776.134-1.19.134a5.29 5.29 0 0 1-4.328-2.24c-.523 1.266-1.51 2.284-2.759 2.847-.023.146-.023.303-.023.455a4.24 4.24 0 0 0 1.242 2.999A4.24 4.24 0 0 0 28 31.241c.613 0 1.202-.134 1.733-.373l.472.951c-.957.321-1.697.478-2.205.478-1.412 0-2.759-.554-3.751-1.552-.603-.601-1.052-1.34-1.307-2.152h-.776v-2.654h.636a5.3 5.3 0 0 1 3.67-4.012 5.3 5.3 0 0 1 5.272 1.328c.735.732 1.237 1.666 1.441 2.683h.648v2.654h-.035L31.722 30.5l-3.092-.35v-.974h2.818l.473-.566zm-5.513-1.744c.175 0 .344.07.467.198s.192.292.192.467-.069.343-.192.467-.292.193-.467.193a.66.66 0 0 1-.665-.659c0-.367.297-.665.665-.665zm3.179 0a.66.66 0 0 1 .659.665c0 .367-.292.659-.659.659a.66.66 0 0 1-.665-.659c0-.176.07-.345.195-.47s.294-.195.47-.195z" fill="#01244c"/></svg>
